assets/sonr-icons/card-stack.svg

<svg xmlns="http://www.w3.org/2000/svg" width="24" height="24" fill="none"><path fill="currentColor" d="M2.218 9.092c-.14.276-.191.607-.208 1.108-.01.271-.014.406.039.517a.5.5 0 0 0 .219.227c.109.057.25.057.533.057h14.398c.283 0 .424 0 .533-.057a.5.5 0 0 0 .219-.227c.053-.111.048-.246.038-.517-.018-.501-.067-.832-.208-1.108a2 2 0 0 0-.874-.874C16.48 8 15.919 8 14.799 8h-9.6c-1.12 0-1.68 0-2.108.218a2 2 0 0 0-.873.874M18 13.8c0-.28 0-.42-.055-.527a.5.5 0 0 0-.218-.218C17.62 13 17.48 13 17.2 13H2.8c-.28 0-.42 0-.527.055a.5.5 0 0 0-.218.218C2 13.38 2 13.52 2 13.8v3c0 1.12 0 1.68.218 2.108.192.377.498.683.874.874C3.52 20 4.08 20 5.2 20h9.6c1.12 0 1.68 0 2.108-.218a2 2 0 0 0 .874-.874C18 18.481 18 17.92 18 16.8z"/><path fill="currentColor" d="M6 5a1 1 0 0 1 1-1h12a3 3 0 0 1 3 3v8a1 1 0 0 1-2 0V7a1 1 0 0 0-1-1H7a1 1 0 0 1-1-1"/></svg>

<svg xmlns="http://www.w3.org/2000/svg" width="24" height="24" fill="none" viewBox="0 0 24 24"><path fill="#000" d="M2.218 9.092C2.078 9.368 2.027 9.699 2.01 10.2C2 10.471 1.996 10.606 2.049 10.717C2.095 10.812 2.175 10.895 2.268 10.944C2.377 11.001 2.518 11.001 2.801 11.001H17.199C17.482 11.001 17.623 11.001 17.732 10.944C17.826 10.895 17.905 10.812 17.951 10.717C18.004 10.606 17.999 10.471 17.989 10.2C17.971 9.699 17.922 9.368 17.781 9.092C17.589 8.715 17.283 8.409 16.907 8.218C16.48 8 15.919 8 14.799 8H5.199C4.079 8 3.519 8 3.091 8.218C2.715 8.41 2.409 8.716 2.218 9.092ZM18 13.8C18 13.52 18 13.38 17.945 13.273C17.897 13.179 17.82 13.103 17.727 13.055C17.62 13 17.48 13 17.2 13H2.8C2.52 13 2.38 13 2.273 13.055C2.179 13.103 2.103 13.179 2.055 13.273C2 13.38 2 13.52 2 13.8V16.8C2 17.92 2 18.48 2.218 18.908C2.41 19.285 2.716 19.591 3.092 19.782C3.52 20 4.08 20 5.2 20H14.8C15.92 20 16.48 20 16.908 19.782C17.285 19.59 17.59 19.284 17.782 18.908C18 18.481 18 17.92 18 16.8V13.8Z"/><path fill="#000" d="M6.00002 5C6.00002 4.448 6.44802 4 7.00002 4H19C20.657 4 22 5.343 22 7V15C22 15.552 21.552 16 21 16C20.448 16 20 15.552 20 15V7C20 6.448 19.552 6 19 6H7.00002C6.44802 6 6.00002 5.552 6.00002 5Z"/></svg>
